svg/fluentui-system-icons/ic_fluent_box_dismiss_20_filled.svg

<svg width="20" height="20" viewBox="0 0 20 20" fill="none" xmlns="http://www.w3.org/2000/svg">
<path d="M17.4212 4.99247L14.3751 6.21088L6.87504 3.21084L8.70013 2.4808C9.53457 2.14702 10.4654 2.14702 11.2999 2.4808L17.0571 4.78369C17.1898 4.83679 17.312 4.90749 17.4212 4.99247ZM10.0001 7.96088L13.0289 6.74939L5.52875 3.74935L2.94291 4.78369C2.81019 4.83678 2.68812 4.90745 2.57894 4.99239L10.0001 7.96088ZM2.03542 5.85202C2.01215 5.95711 2 6.06575 2 6.1764V13.8223C2 14.4357 2.37343 14.9873 2.94291 15.2151L8.70013 17.5179C8.95942 17.6217 9.22802 17.6931 9.50015 17.7324V16.7948C9.17905 16.0964 9 15.3191 9 14.5C9 13.6809 9.17905 12.9036 9.50015 12.2052V8.83791L2.03542 5.85202ZM18 6.1764V10.2572C17.0491 9.47182 15.8296 9 14.5 9C12.924 9 11.5029 9.66282 10.5001 10.7249V8.83791L17.9646 5.85213C17.9879 5.95719 18 6.06579 18 6.1764ZM19 14.5C19 16.9853 16.9853 19 14.5 19C12.0147 19 10 16.9853 10 14.5C10 12.0147 12.0147 10 14.5 10C16.9853 10 19 12.0147 19 14.5ZM16.3536 13.3536C16.5488 13.1583 16.5488 12.8417 16.3536 12.6464C16.1583 12.4512 15.8417 12.4512 15.6464 12.6464L14.5 13.7929L13.3536 12.6464C13.1583 12.4512 12.8417 12.4512 12.6464 12.6464C12.4512 12.8417 12.4512 13.1583 12.6464 13.3536L13.7929 14.5L12.6464 15.6464C12.4512 15.8417 12.4512 16.1583 12.6464 16.3536C12.8417 16.5488 13.1583 16.5488 13.3536 16.3536L14.5 15.2071L15.6464 16.3536C15.8417 16.5488 16.1583 16.5488 16.3536 16.3536C16.5488 16.1583 16.5488 15.8417 16.3536 15.6464L15.2071 14.5L16.3536 13.3536Z" fill="#212121"/>
</svg>

<svg xmlns="http://www.w3.org/2000/svg" width="20" height="20"><path d="m17.421 4.992-3.046 1.219-7.5-3L8.7 2.48a3.5 3.5 0 0 1 2.6 0l5.757 2.303a1.5 1.5 0 0 1 .364.208Zm-7.42 2.969 3.028-1.212-7.5-3-2.586 1.035a1.499 1.499 0 0 0-.364.208L10 7.961ZM2.034 5.852A1.5 1.5 0 0 0 2 6.176v7.646a1.5 1.5 0 0 0 .943 1.393L8.7 17.518c.26.104.528.175.8.214v-.937A5.48 5.48 0 0 1 9 14.5c0-.82.18-1.596.5-2.295V8.838L2.035 5.852ZM18 6.176v4.081A5.477 5.477 0 0 0 14.5 9a5.485 5.485 0 0 0-4 1.725V8.838l7.465-2.986c.023.105.035.214.035.324Zm1 8.324a4.5 4.5 0 1 1-9 0 4.5 4.5 0 0 1 9 0Zm-2.646-1.146a.5.5 0 0 0-.708-.708L14.5 13.793l-1.146-1.147a.5.5 0 0 0-.708.708l1.147 1.146-1.147 1.146a.5.5 0 0 0 .708.708l1.146-1.147 1.146 1.147a.5.5 0 0 0 .708-.708L15.207 14.5l1.147-1.146Z"/></svg>
